X:231
T:Miss Fletcher’s Reel TS.231
M:C|
L:1/8
Q:1/2=90
S:Thomas Sands’ MS,1810,Lincolnshire
R:reel
O:England;Lincolnshire
N:The final ‘A’ in the first part is merely a grace note in the MS
Z:vmp.Ruairidh Greig, 2011
K:D
D2FA dAFD|E2CE A,ECE|D2FA dAFD|A,/A,/A, B,CD2″NB”A2:|
|:fage dcBA|BABc dAFA|fage dcBA|{c/}BABcd2d2|
fage dcBA|BABc dAFE|D2FA dAFD|A,/A,/A, B,CD2H|]

